images/logo/header__logo.svg

<svg width="184" height="60" viewBox="0 0 184 60" fill="none" xmlns="http://www.w3.org/2000/svg">
<g filter="url(#filter0_d_62863_869)">
<path d="M11.7653 23.3826L14.4107 22.0738L18.592 15.7919L19.872 15.2685L21.2374 21.6376L19.4454 21.8993L18.08 19.2819L17.056 23.3826H21.5787L26.272 24.604L28.1494 23.3826L31.3067 26.698L32.672 20.5906L34.8907 22.8591L36.256 20.9396L38.4747 20.3289L41.7174 17.2752L42.2294 15.7919L44.8747 16.2282L45.9841 17.7114L44.0214 21.8993L48.8854 19.3691V18.1476L50.7627 17.7114L52.8107 19.8054L54.8587 17.2752V15.5302L58.1867 13.1745L59.5521 11.1678H61.6854L65.4401 3.40268L68.6828 0L69.8774 1.91946L68.0001 4.36242L68.6828 5.93289L70.4748 6.28188L71.9254 12.7383V18.1476L74.4854 21.7248L75.7654 26.698L71.3281 23.8188L69.3654 15.5302L68.1707 15.7919L68.0001 21.3758L64.7574 26.698L63.8187 34.8121L66.0374 35.3356L66.9761 34.2013L69.1094 36.6443L70.7307 43.9732L70.5601 48.6846H68.5121L67.7441 42.0537L66.2934 44.0604L63.1361 43.3624L60.5761 41.1812L57.6747 42.2282L57.8454 46.9396L55.5414 47.5503L52.1281 50.1678L48.0321 49.6443L46.4107 48.6846L43.8507 49.1208L44.7041 50.1678L42.6561 51.3893L41.0347 50.604L37.9627 52L33.2694 49.6443L31.4774 45.4564L29.9414 45.6309L28.1494 44.1477L28.064 43.0134L22.3467 42.4027L21.408 45.5436L17.824 43.8859L16.032 40.8322H12.192L11.7653 45.7181L9.54667 46.4161L8.43734 50.8658L7.584 50.0805L4 40.745L8.26667 38.651L7.584 34.5503L6.90134 30.3624L8.77867 27.6577L8.18134 26L10.7413 23.2081L11.7653 23.3826ZM68.5121 33.6779L72.4374 39.6107L73.7174 39.0872L72.0961 36.6443L68.5121 32.8054V33.6779ZM28.4054 21.6376V19.8926L31.392 17.7114L33.952 16.4027H30.9654L28.32 17.9732L26.6987 19.4564V21.6376H28.4054Z" fill="white"/>
<path d="M93.8314 41.0004H98.5546V35.8186H101.171C105.138 35.8186 107.797 33.4749 107.797 29.7164C107.797 26.0004 105.206 23.5459 101.341 23.5459H93.8314V41.0004ZM98.5546 32.1368V27.33H100.22C101.876 27.33 102.87 28.2164 102.87 29.7164C102.87 31.2078 101.876 32.1368 100.22 32.1368H98.5546Z" fill="white"/>
<path d="M115.604 41.2391C119.851 41.2391 122.366 38.5118 122.366 34.4891C122.366 30.4664 119.851 27.7391 115.604 27.7391C111.356 27.7391 108.842 30.4664 108.842 34.4891C108.842 38.5118 111.356 41.2391 115.604 41.2391ZM115.638 37.7618C114.381 37.7618 113.633 36.509 113.633 34.455C113.633 32.401 114.381 31.1482 115.638 31.1482C116.827 31.1482 117.575 32.401 117.575 34.455C117.575 36.509 116.827 37.7618 115.638 37.7618Z" fill="white"/>
<path d="M130.555 41.2391C134.42 41.2391 136.79 39.0146 136.841 35.5459H132.492C132.39 36.9181 131.651 37.6595 130.623 37.6595C129.391 37.6595 128.584 36.6027 128.584 34.455C128.584 32.3073 129.391 31.2504 130.623 31.2504C131.659 31.2504 132.365 31.9919 132.492 33.3641H136.841C136.816 29.955 134.395 27.7391 130.555 27.7391C126.308 27.7391 123.793 30.4664 123.793 34.4891C123.793 38.5118 126.308 41.2391 130.555 41.2391Z" fill="white"/>
<path d="M145.062 41.2391C148.928 41.2391 151.298 39.0146 151.349 35.5459H146.999C146.897 36.9181 146.158 37.6595 145.13 37.6595C143.899 37.6595 143.092 36.6027 143.092 34.455C143.092 32.3073 143.899 31.2504 145.13 31.2504C146.167 31.2504 146.872 31.9919 146.999 33.3641H151.349C151.323 29.955 148.902 27.7391 145.062 27.7391C140.815 27.7391 138.3 30.4664 138.3 34.4891C138.3 38.5118 140.815 41.2391 145.062 41.2391Z" fill="white"/>
<path d="M157.701 35.0004V27.9095H153.283V41.0004H157.701L161.337 33.8754V41.0004H165.754V27.9095H161.337L157.701 35.0004Z" fill="white"/>
<path d="M175.651 41.0004H180V27.9095H173.884C170.12 27.9095 167.742 29.8186 167.767 32.4777C167.75 33.9692 168.642 35.205 170.205 35.9379L167.631 41.0004H171.947L174.147 36.6709H175.651V41.0004ZM175.651 33.8414H173.986C172.737 33.8414 172.159 33.2277 172.185 32.6482C172.159 32.1027 172.703 31.4209 173.884 31.4209H175.651V33.8414Z" fill="white"/>
</g>
<defs>
<filter id="filter0_d_62863_869" x="0" y="0" width="184" height="60" filterUnits="userSpaceOnUse" color-interpolation-filters="sRGB">
<feFlood flood-opacity="0" result="BackgroundImageFix"/>
<feColorMatrix in="SourceAlpha" type="matrix" values="0 0 0 0 0 0 0 0 0 0 0 0 0 0 0 0 0 0 127 0" result="hardAlpha"/>
<feOffset dy="4"/>
<feGaussianBlur stdDeviation="2"/>
<feComposite in2="hardAlpha" operator="out"/>
<feColorMatrix type="matrix" values="0 0 0 0 0 0 0 0 0 0 0 0 0 0 0 0 0 0 0.25 0"/>
<feBlend mode="normal" in2="BackgroundImageFix" result="effect1_dropShadow_62863_869"/>
<feBlend mode="normal" in="SourceGraphic" in2="effect1_dropShadow_62863_869" result="shape"/>
</filter>
</defs>
</svg>

<svg width="184" height="60" fill="none" xmlns="http://www.w3.org/2000/svg"><g filter="url(#a)" fill="#fff"><path d="m11.765 23.383 2.646-1.31 4.181-6.281 1.28-.524 1.365 6.37-1.792.261-1.365-2.617-1.024 4.1h4.523l4.693 1.222 1.877-1.221 3.158 3.315 1.365-6.107 2.219 2.268 1.365-1.92 2.219-.61 3.242-3.054.512-1.483 2.646.436 1.11 1.483L44.02 21.9l4.864-2.53v-1.221l1.878-.437 2.048 2.094 2.048-2.53V15.53l3.328-2.355 1.365-2.007h2.133l3.755-7.765L68.683 0l1.194 1.92L68 4.361l.683 1.57 1.792.35 1.45 6.456v5.41l2.56 3.577 1.28 4.973-4.437-2.88-1.963-8.288-1.194.262-.17 5.584-3.244 5.322-.938 8.114 2.218.524.94-1.135 2.132 2.443 1.622 7.33-.17 4.71h-2.049l-.768-6.63-1.45 2.006-3.158-.698-2.56-2.18-2.901 1.046.17 4.712-2.304.61-3.413 2.618-4.096-.524-1.621-.96-2.56.437.853 1.047-2.048 1.221-1.621-.785L37.963 52l-4.694-2.356-1.792-4.188-1.536.175-1.792-1.483-.085-1.135-5.717-.61-.939 3.14-3.584-1.657-1.792-3.054h-3.84l-.427 4.886-2.218.698-1.11 4.45-.853-.785L4 40.745l4.267-2.094-.683-4.1-.683-4.189 1.878-2.704L8.18 26l2.56-2.792 1.024.175Zm56.747 10.295 3.925 5.933 1.28-.524-1.62-2.443-3.585-3.839v.873Zm-40.107-12.04v-1.745l2.987-2.182 2.56-1.308h-2.987l-2.645 1.57-1.621 1.483v2.182h1.706ZM93.831 41h4.724v-5.18h2.616c3.967 0 6.626-2.344 6.626-6.103 0-3.716-2.591-6.17-6.456-6.17h-7.51V41Zm4.724-8.863V27.33h1.665c1.656 0 2.65.886 2.65 2.386 0 1.492-.994 2.42-2.65 2.42h-1.665Zm17.049 9.103c4.247 0 6.762-2.728 6.762-6.75 0-4.024-2.515-6.75-6.762-6.75-4.248 0-6.762 2.726-6.762 6.75 0 4.022 2.514 6.75 6.762 6.75Zm.034-3.478c-1.257 0-2.005-1.253-2.005-3.307 0-2.054.748-3.307 2.005-3.307 1.189 0 1.937 1.253 1.937 3.307 0 2.054-.748 3.307-1.937 3.307Zm14.917 3.478c3.865 0 6.235-2.225 6.286-5.694h-4.349c-.102 1.372-.841 2.114-1.869 2.114-1.232 0-2.039-1.057-2.039-3.205s.807-3.205 2.039-3.205c1.036 0 1.742.742 1.869 2.114h4.349c-.025-3.409-2.446-5.625-6.286-5.625-4.247 0-6.762 2.727-6.762 6.75s2.515 6.75 6.762 6.75Zm14.507 0c3.866 0 6.236-2.225 6.287-5.694h-4.35c-.102 1.372-.841 2.114-1.869 2.114-1.231 0-2.038-1.057-2.038-3.205s.807-3.205 2.038-3.205c1.037 0 1.742.742 1.869 2.114h4.35c-.026-3.409-2.447-5.625-6.287-5.625-4.247 0-6.762 2.727-6.762 6.75s2.515 6.75 6.762 6.75ZM157.701 35v-7.09h-4.418V41h4.418l3.636-7.125V41h4.417V27.91h-4.417L157.701 35Zm17.95 6H180V27.91h-6.116c-3.764 0-6.142 1.909-6.117 4.568-.017 1.491.875 2.727 2.438 3.46L167.631 41h4.316l2.2-4.33h1.504V41Zm0-7.159h-1.665c-1.249 0-1.827-.613-1.801-1.193-.026-.545.518-1.227 1.699-1.227h1.767v2.42Z"/></g><defs><filter id="a" x="0" y="0" width="184" height="60" filterUnits="userSpaceOnUse" color-interpolation-filters="sRGB"><feFlood flood-opacity="0" result="BackgroundImageFix"/><feColorMatrix in="SourceAlpha" values="0 0 0 0 0 0 0 0 0 0 0 0 0 0 0 0 0 0 127 0" result="hardAlpha"/><feOffset dy="4"/><feGaussianBlur stdDeviation="2"/><feComposite in2="hardAlpha" operator="out"/><feColorMatrix values="0 0 0 0 0 0 0 0 0 0 0 0 0 0 0 0 0 0 0.25 0"/><feBlend in2="BackgroundImageFix" result="effect1_dropShadow_62863_869"/><feBlend in="SourceGraphic" in2="effect1_dropShadow_62863_869" result="shape"/></filter></defs></svg>
